!!!COM: Heinz Gaze
!!!OTL: La-Li-Loo
!!!OTL@@DE: La-Le-Lu
!!!ARE: Deutschland
**kern
*clefG2
*k[b-]
*M4/4
*MM 85
=1
{2.c
4f
=2
2a}
{8g
8f
8e
8d
=3
2.c
4g
=4
2b-}
{8a
8g
8e
8d
=5
2.c
4cc
=6
4cc
2.b-}
=7
{2a
4g
4f
=8
1g}
=9
{2.c
4f
=10
2a}
{8g
8f
8e
8d
=11
2.c
4g
=12
2b-}
{8a
8g
8e
8d
=13
2.c
4cc
=14
4cc
2.b-}
=15
{2a
4c
4g
=16
1f}
=17
{2dd
6g
6a
6b-
=18
4cc
2.cc}
=19
{2b-
6e
6f
6g
=20
1a}
=21
{2b-
6e
6f
6g
4a
2.a}
=22
{4a
4g
4f
4a
=23
1g}
=24
{2.c
4f
=25
2a}
{8g
8f
8e
8d
=26
2.c
4g
=27
2b-}
{8a
8g
8e
8d
=28
2.c
4cc
=29
4cc
2.b-}
=30
{2a
4c
4g
=31
1f}
==
*-